src/images_karasa_jaga_svg/cmd/sc_basicshapes.pentagon.svg

<svg height="16" viewBox="0 0 16 16" width="16" xmlns="http://www.w3.org/2000/svg" xmlns:xlink="http://www.w3.org/1999/xlink"><linearGradient id="a" gradientUnits="userSpaceOnUse" x1="64.000145" x2="64.000145" y1="118.21886" y2="8.382498"><stop offset="0" stop-color="#fff"/><stop offset=".4375" stop-color="#fff"/><stop offset=".71875" stop-color="#f1f1f1"/><stop offset=".84375" stop-color="#eaeaea"/><stop offset="1" stop-color="#dfdfdf"/></linearGradient><linearGradient id="b" gradientUnits="userSpaceOnUse" x1="5.101148" x2="122.89871" y1="63.624363" y2="63.624363"><stop offset="0" stop-color="#7c9fcf"/><stop offset=".5" stop-color="#7c9ece"/><stop offset="1" stop-color="#7b9dcf"/></linearGradient><g transform="scale(.125)"><path d="m64.228516 7.21875a8.033933 8.033933 0 0 0 -4.947266 1.5292969l-50.8671875 36.9531251a8.033933 8.033933 0 0 0 -2.9199219 8.982422l19.4257814 59.794926a8.033933 8.033933 0 0 0 7.640625 5.55078l62.873047.004a8.033933 8.033933 0 0 0 7.640626-5.55078l19.43164-59.79502a8.033933 8.033933 0 0 0 -2.91797-8.980469l-50.863281-36.957031a8.033933 8.033933 0 0 0 -4.496093-1.53125z" fill="url(#b)"/><path d="m95.433604 112-62.872784-.00294-19.425964-59.796479 50.866879-36.953311 50.863405 36.958072z" fill="url(#a)"/></g></svg>

<?xml version="1.0" encoding="UTF-8" standalone="no"?>
<svg
   xmlns:dc="http://purl.org/dc/elements/1.1/"
   xmlns:cc="http://creativecommons.org/ns#"
   xmlns:rdf="http://www.w3.org/1999/02/22-rdf-syntax-ns#"
   xmlns:svg="http://www.w3.org/2000/svg"
   xmlns="http://www.w3.org/2000/svg"
   xmlns:xlink="http://www.w3.org/1999/xlink"
   xmlns:sodipodi="http://sodipodi.sourceforge.net/DTD/sodipodi-0.dtd"
   xmlns:inkscape="http://www.inkscape.org/namespaces/inkscape"
   height="128"
   viewBox="0 0 128 128"
   width="128"
   version="1.1"
   id="svg31"
   sodipodi:docname="sc_basicshapes.pentagon.svg"
   inkscape:version="0.92.3 (unknown)"
   inkscape:export-filename="/home/rizmut/Dokumen/Rizmut/Github/libreoffice-style-karasa-jaga/build/images_karasa_jaga/cmd/sc_basicshapes.pentagon.png"
   inkscape:export-xdpi="12"
   inkscape:export-ydpi="12">
  <metadata
     id="metadata37">
    <rdf:RDF>
      <cc:Work
         rdf:about="">
        <dc:format>image/svg+xml</dc:format>
        <dc:type
           rdf:resource="http://purl.org/dc/dcmitype/StillImage" />
        <dc:title></dc:title>
      </cc:Work>
    </rdf:RDF>
  </metadata>
  <defs
     id="defs35">
    <linearGradient
       id="linearGradient3369">
      <stop
         id="stop3372"
         offset="0"
         style="stop-color:#ffffff;stop-opacity:1;" />
      <stop
         style="stop-color:#ffffff;stop-opacity:1;"
         offset="0.46428573"
         id="stop3374" />
      <stop
         style="stop-color:#f1f1f1;stop-opacity:1;"
         offset="0.78125"
         id="stop3376" />
      <stop
         id="stop3378"
         offset="0.90625"
         style="stop-color:#eaeaea;stop-opacity:1;" />
      <stop
         id="stop3384"
         offset="1"
         style="stop-color:#dfdfdf;stop-opacity:1;" />
    </linearGradient>
    <linearGradient
       id="linearGradient7422">
      <stop
         style="stop-color:#7c9fcf;stop-opacity:1"
         offset="0"
         id="stop7424" />
      <stop
         id="stop5348"
         offset="0.5"
         style="stop-color:#7c9ece;stop-opacity:1" />
      <stop
         id="stop7426"
         offset="1"
         style="stop-color:#7b9dcf;stop-opacity:1" />
    </linearGradient>
    <linearGradient
       inkscape:collect="always"
       xlink:href="#linearGradient3369-3"
       id="linearGradient1174"
       x1="64"
       y1="128"
       x2="64"
       y2="0"
       gradientUnits="userSpaceOnUse"
       gradientTransform="matrix(0.85809657,0,0,0.85809657,9.081964,8.382498)" />
    <linearGradient
       id="linearGradient3369-3">
      <stop
         id="stop3372-6"
         offset="0"
         style="stop-color:#ffffff;stop-opacity:1;" />
      <stop
         style="stop-color:#ffffff;stop-opacity:1;"
         offset="0.4375"
         id="stop3374-7" />
      <stop
         style="stop-color:#f1f1f1;stop-opacity:1;"
         offset="0.71875"
         id="stop3376-5" />
      <stop
         id="stop3378-3"
         offset="0.84375"
         style="stop-color:#eaeaea;stop-opacity:1;" />
      <stop
         id="stop3384-5"
         offset="1"
         style="stop-color:#dfdfdf;stop-opacity:1;" />
    </linearGradient>
    <linearGradient
       inkscape:collect="always"
       xlink:href="#linearGradient7422"
       id="linearGradient1020"
       x1="5.1011481"
       y1="63.624363"
       x2="122.89871"
       y2="63.624363"
       gradientUnits="userSpaceOnUse" />
  </defs>
  <sodipodi:namedview
     pagecolor="#ffffff"
     bordercolor="#666666"
     borderopacity="1"
     objecttolerance="10"
     gridtolerance="10"
     guidetolerance="10"
     inkscape:pageopacity="0"
     inkscape:pageshadow="2"
     inkscape:window-width="1366"
     inkscape:window-height="706"
     id="namedview33"
     showgrid="true"
     inkscape:zoom="0.99999999"
     inkscape:cx="48.974115"
     inkscape:cy="33.639702"
     inkscape:window-x="0"
     inkscape:window-y="0"
     inkscape:window-maximized="1"
     inkscape:current-layer="svg31"
     inkscape:snap-global="false">
    <inkscape:grid
       type="xygrid"
       id="grid844"
       spacingx="8"
       spacingy="8"
       empspacing="2" />
  </sodipodi:namedview>
  <linearGradient
     id="a">
    <stop
       offset="0"
       stop-color="#f9f9fa"
       id="stop2" />
    <stop
       offset="1"
       stop-color="#f9f9fa"
       stop-opacity="0"
       id="stop4" />
  </linearGradient>
  <linearGradient
     id="b"
     gradientUnits="userSpaceOnUse"
     x1="42.276669"
     x2="-13.469376"
     xlink:href="#a"
     y1="50.867565"
     y2="104.97279" />
  <linearGradient
     id="c"
     gradientUnits="userSpaceOnUse"
     x1="-1.817377"
     x2="2.172436"
     xlink:href="#a"
     y1="55.003803"
     y2="116.784" />
  <g
     id="g1043">
    <path
       d="M 64.228516,7.21875 A 8.033933,8.033933 0 0 0 59.28125,8.7480469 L 8.4140625,45.701172 A 8.033933,8.033933 0 0 0 5.4941406,54.683594 L 24.919922,114.47852 a 8.033933,8.033933 0 0 0 7.640625,5.55078 l 62.873047,0.004 a 8.033933,8.033933 0 0 0 7.640626,-5.55078 L 122.50586,54.6875 a 8.033933,8.033933 0 0 0 -2.91797,-8.980469 L 68.724609,8.75 A 8.033933,8.033933 0 0 0 64.228516,7.21875 Z"
       id="path1010"
       style="fill:url(#linearGradient1020);fill-opacity:1.0;stroke:none;stroke-width:3.0612936;stroke-linecap:round;stroke-linejoin:bevel;stroke-opacity:0.73039198"
       inkscape:original="M 64.001953 15.248047 L 13.134766 52.201172 L 32.560547 111.99609 L 95.433594 112 L 114.86523 52.205078 L 64.001953 15.248047 z "
       inkscape:radius="8.0331297"
       sodipodi:type="inkscape:offset" />
    <path
       id="path7"
       style="fill:url(#linearGradient1174);fill-opacity:1;stroke:none;stroke-width:3.0612936;stroke-linecap:round;stroke-linejoin:bevel;stroke-opacity:0.73039198"
       d="M 95.433604,112 32.56082,111.99706 13.134856,52.200581 64.001735,15.24727 114.86514,52.205342 Z"
       inkscape:connector-curvature="0" />
  </g>
</svg>
